rospo-newyear-dark/symbolic/status/user-invisible-symbolic.svg

<svg height="16" width="16" xmlns="http://www.w3.org/2000/svg"><path d="m8 2c-1.66 0-3 1.34-3 3 0 1.65 1.34 3 3 3s3-1.35 3-3c0-1.66-1.34-3-3-3zm0 1a2 2 0 0 1 2 2 2 2 0 0 1 -2 2 2 2 0 0 1 -2-2 2 2 0 0 1 2-2zm0 7c-6 0-6 4-6 4v1h12v-1s0-4.01-6-4zm0 1c2.78 0 3.89.85 4.45 1.6.56.74.55 1.4.55 1.4h-10s-.01-.66.55-1.4c.56-.75 1.67-1.6 4.45-1.6z" fill="#d3dae3" opacity=".3"/></svg>

<svg xmlns="http://www.w3.org/2000/svg" width="16" height="16" version="1.1">
 <path style="opacity:0.3;fill:#d3dae3" d="M 8,2 C 6.34,2 5,3.34 5,5 5,6.65 6.34,8 8,8 9.66,8 11,6.65 11,5 11,3.34 9.66,2 8,2 Z M 8,3 A 2,2 0 0 1 10,5 2,2 0 0 1 8,7 2,2 0 0 1 6,5 2,2 0 0 1 8,3 Z M 8,10 C 2,10 2,14 2,14 V 15 H 14 V 14 C 14,14 14,9.99 8,10 Z M 8,11 C 10.78,11 11.89,11.85 12.45,12.6 13.01,13.34 13,14 13,14 H 3 C 3,14 2.99,13.34 3.55,12.6 4.11,11.85 5.22,11 8,11 Z"/>
</svg>
